!!!COM: Scriabin, Alexander
!!!OTL@@FR: Prélude en do majeur
!!!OTL@@EN: Prelude in C Major
!!!OPR@@FR: 24 Préludes
!!!OPR@@EN: 24 Preludes
!!!OPS: 11
!!!ONM: 1
!!!ODT: 1895
!!!AGN: Prelude
**kern	**kern	**dynam
*staff2	*staff1	*staff1/2
*Ipiano	*Ipiano	*
*clefF4	*clefG2	*
*k[]	*k[]	*
*C:	*C:	*
*M2/2	*M2/2	*
10CCL	10ddL	p
10GG	10a	.
=1	=1	=1
10F	10cc	.
10G	10g	.
10fJ	10dJ	.
*Xtuplet	*Xtuplet	*
5r	10ddL	.
.	10ee	<
5.r	10aa	>
.	10gg	]
.	10eeJ	.
10CCL	10ddL	.
10GG	10a	.
=2	=2	=2
10F	10cc	.
10G	10g	.
10fJ	10dJ	.
10CCL	10ddL	.
10GG	10a	.
10E	10cc	.
10G	10g	.
10eJ	10cJ	.
10CCL	10ggL	<
10C	10dd	.
!!LO:LB:g=original
=3	=3	=3
10B-X	10ff	.
10c	10cc	.
10b-XJ	10gJ	.
5r	10ggL	.
.	10aa	<
5.r	10ddd	>
.	10ccc	]
.	10aaJ	.
10CCL	10ggL	.
10C	10dd	.
=4	=4	=4
10B-X	10ff	.
10c	10cc	.
10b-XJ	10gJ	.
10FFL	10ggL	.
10C	10dd	.
10A	10ff	.
10c	10cc	.
10aJ	10fJ	.
10DDL	10ffL	<
10D	10cc	.
=5	=5	=5
10A	10ee	.
10d	10cc	.
10aJ	10fJ	.
5r	10ddL	.
.	10ee	.
5.r	10aa	.
.	10gg	.
.	10ffJ	.
10AAAL	10eeL	.
10AA	10cc	.
!!LO:LB:g=original
=6	=6	=6
10F	10dd	.
10d	10cc	.
10aJ	10fJ	.
5r	10ccL	.
.	10dd	.
5.r	10gg	.
.	10ff	.
.	10eeJ	.
10DDDL	10ddL	<
10DD	10cc	.
=7	=7	=7
10AA	10ee	.
10F	10cc	.
10cJ	10fJ	.
5r	10ffL	.
.	10cc	.
5.r	10eee	f
.	10ddd	.
.	10cccJ	.
10GGGL	10aaL	.
10GG	10ff	.
=8	=8	=8
10F	10ee	.
10B	10b	.
10fJ	10gJ	.
*tuplet	*	*
6B	10ddL	>
.	10b	.
6F	.	.
.	10gg	.
.	10dd	.
6GG	.	.
.	10gJ	.
*Xtuplet	*	*
10CCL	10aaL	p
10GG	10ee	.
!!LO:LB:g=original
=9	=9	=9
10F	10gg	.
10G	10dd	.
10fJ	10gJ	.
5r	10aaL	.
.	10bb	.
5.r	10eee	.
.	10ddd	.
.	10bbJ	.
10CCL	10aaL	.
10GG	10ee	.
=10	=10	=10
10F	10gg	.
10G	10dd	.
10fJ	10gJ	.
10CCL	10eeL	.
10GG	10g	.
10E	10cc	.
10G	10g	.
10eJ	10cJ	.
10AAL	10ffL	.
10E	10b	.
=11	=11	=11
10B	10ee	.
10d	10b	.
10g#XJ	10eJ	.
5r	10bbL	.
.	10ccc	.
5.r	10eee	.
.	10ddd	.
.	10cccJ	.
10AA\L	10bbL	pp
10E	10ee	.
!!LO:LB:g=original
=12	=12	=12
10d	10aa	.
*clefG2	*	*
10e	10ee	.
10ddJ	10bJ	.
*clefF4	*	*
10AAL	10bbL	.
10E	10ee	.
*clefG2	*	*
10c	10aa	.
10e	10ee	.
10ccJ	10aJ	.
*clefF4	*	*
10DD#XL	10ggnL	.
10D#X	10b	.
=13	=13	=13
10c	10ff#X	.
10f#X	10a	.
10AJ	10ccJ	.
10EEnL	10ee#XL	<
10E	10ff#	.
10B	10aa	.
10e	10gg	.
10GJ	10bJ	.
10CC#XL	10ffnL	.
10C#X	10a	.
!!LO:LB:g=original
=14	=14	=14
10B-X	10een	.
10e	10g	.
10GJ	10b-XJ	.
10DDnL	10dd#XL	.
10D	10ee	.
10A	10gg	.
10d	10ff	.
10FJ	10aJ	.
10FFFL	10eeL	.
10FF	10a-X	.
=15	=15	=15
10D	10ddn	.
10A-X	10a-X	.
10cJ	10dJ	.
10GGGL	10eeL	.
10GG	10g	.
10D	10dd	.
10G	10g	.
10cJ	10dJ	.
10AAA-XL	10eeL	.
10AA-X	10f#X	.
=16	=16	=16
10D	10dd	.
10F#X	10f#X	.
10cJ	10dJ	.
10AAAnL	10eeL	.
10AAn	10f#	.
10D	10dd	.
10F#	10f#	.
10cJ	10dJ	.
10GGGL	10eeL	.
10GG	10g	.
!!LO:LB:g=original
=17	=17	=17
10D	10dd	.
10G	10g	.
10cJ	10dJ	.
10GGGL	10eeL	.
10GG	10g	.
10D	10dd	.
10G	10g	.
10cJ	10dJ	.
10GGGL	10aL 10aa	.
10GG	10dd	.
=18	=18	=18
10F	10g 10gg	.
10B	10dd	.
10dJ	10gJ	.
10GGGL	10aL 10aa	.
10GG	10dd	.
10F	10g 10gg	.
10B	10dd	.
10dJ	10gJ	.
5CCC 5CC	10ddL 10ddd	ff
.	10aa	.
=19	=19	=19
10.GG 10.F 10.G	10cc 10ccc	.
.	10gg	.
10.G 10.f 10.g	.	.
.	10ddJ	.
*clefG2	*	*
10ddL	10dddL	.
10ee	10eee	.
10aa	10aaa	.
10gg	10ggg	.
10eeJ	10eeeJ	.
*clefF4	*	*
5CCC 5CC	10ddL 10ddd	.
.	10aa	.
!!LO:LB:g=original
=20	=20	=20
10.GG 10.F 10.G	10cc 10ccc	.
.	10gg	.
10.G 10.f 10.g	.	.
.	10ddJ	.
5CCC 5CC	10ddL 10ddd	.
.	10aa	.
10.GG 10.E 10.G	10cc 10ccc	.
.	10gg	.
10.G 10.e 10.g	.	.
.	10ccJ	.
5CCC 5CC	10dL 10dd	.
.	10a	.
=21	=21	=21
10.F 10.G	10c 10cc	.
.	10g	.
10.GG	.	.
.	10dJ	.
10dL	10ddL	.
10e	10ee	.
10a	10aa	.
10g	10gg	.
10eJ	10eeJ	.
5CCC 5CC	10dL 10dd	.
.	10a	.
=22	=22	=22
10.F 10.G	10c 10cc	.
.	10g	.
10.GG	.	.
.	10dJ	.
5CCC 5CC	10dL 10dd	.
.	10a	.
10.E 10.G	10c 10cc	.
.	10g	.
10.GG	.	.
.	10cJ	.
*	*clefF4	*
5F	10dL	.
.	10A	.
!!LO:LB:g=original
=23	=23	=23
10.GG	10c	.
.	10G	.
10.CC	.	.
.	10DJ	.
5E	10dL	.
.	10A	.
10.GG	10c	.
.	10G	.
10.CC	.	.
.	10CJ	.
5E	10dL	.
.	10A	.
=24	=24	=24
10.GG	10c	.
.	10G	.
10.CC	.	.
.	10CJ	.
5E	10dL	.
.	10A	.
10.GG	10c	.
.	10G	.
10.CC	.	.
.	10CJ	.
5GGG 5GG	10r	.
.	10r	.
=25	=25	=25
4CCC 4CC	4r	ff
*	*clefG2	*
4E 4G 4c 4e	4cc 4ee 4gg 4ccc	.
2r	2r	.
==	==	==
*-	*-	*-
!!!system-decoration: {(*)}
!!!RDF**dynam: > = dim.
!!!ENC: Bryan Jacob Bell
!!!END: November 2021 to April 2022
!!!PED: Günter Philipp
!!!PTL: Ausgewählte Klavierwerke (Edition Peters)
